;FLAVOR:Marlin
;TIME:2279
;Filament used: 1.82593m
;Layer height: 0.2
;MINX:26.194
;MINY:27.455
;MINZ:0.3
;MAXX:198.027
;MAXY:94.404
;MAXZ:13.9
;TARGET_MACHINE.NAME:Unknown
;Generated with Cura_SteamEngine 5.6.0
M140 S60
M105
M190 S60
M104 S210
M105
M109 S210
M82 ;absolute extrusion mode
Fill: 0
temperature line
M150 R255 U0 B10 ;Réglage de la LED RGB sur Rouge
G21
G90 ;absolute positioning
M82 ;set extruder to absolute mode
G28 ;home xy
G29 ;autolevelling Z-probe
G1 X0 Y0 F4000 ;move the platform down 5mm & bring front the extruder
G1 Z0.8
G92 E0 ;zero the extruded length
G1 F90 E30 X10 ;extrude 15mm before print
G92 E0 ;zero the extruded length again
G1 F5000 ;print
G92 E0
G92 E0
G1 F1500 E-1
;LAYER_COUNT:69
;LAYER:0
M107
;MESH:Ldr.stl
G0 F3600 X37.565 Y52.739 Z0.3
;TYPE:WALL-INNER
G1 F1500 E0
G1 F1200 X37.459 Y52.475 E0.01419
G1 X37.377 Y51.915 E0.04243
G1 X37.423 Y51.487 E0.06391
G1 X37.588 Y51.042 E0.08758
G1 X37.759 Y50.761 E0.10399
G1 X38.115 Y50.417 E0.12869
G1 X37.782 Y50.075 E0.15251
G1 X37.521 Y49.649 E0.17743
G1 X37.382 Y48.989 E0.21108
G1 X37.419 Y48.502 E0.23545
G1 X37.646 Y47.93 E0.26615
G1 X37.828 Y47.68 E0.28158
G1 X38.105 Y47.423 E0.30043
G1 F897.2 X38.44 Y47.054 E0.33369
G1 F788.2 X38.245 Y47.039 E0.34854
G1 F1012.7 X37.905 Y47.085 E0.36883
G1 F1200 X37.163 Y47.497 E0.41117
G1 X36.557 Y48.051 E0.45213
G1 X36.089 Y48.736 E0.49352
G1 X35.918 Y49.109 E0.51399
G1 X35.713 Y49.894 E0.55447
G1 X35.677 Y50.313 E0.57545
G1 X35.748 Y51.121 E0.61592
G1 X35.999 Y51.9 E0.65675
G1 X36.421 Y52.603 E0.69766
G1 X37 Y53.2 E0.73915
G1 X37.682 Y53.637 E0.77956
G1 X38.07 Y53.801 E0.80057
G1 F895.5 X38.493 Y53.783 E0.82888
G1 X38.211 Y53.481 E0.8565
G1 F1200 X37.945 Y53.271 E0.87341
G1 X37.565 Y52.739 E0.90603
G0 F3600 X38.349 Y53.02
G0 X39.58 Y53.379
G1 F1200 X38.964 Y53.379 E0.93676
G1 X38.419 Y53.14 E0.96645
G1 X38.229 Y52.99 E0.97852
G1 X37.919 Y52.553 E1.00526
G1 X37.843 Y52.365 E1.01537
G1 X37.776 Y51.897 E1.03896
G1 X37.809 Y51.59 E1.05436
G1 X37.951 Y51.209 E1.07465
G1 X38.074 Y51.008 E1.08641
G1 X38.499 Y50.625 E1.11495
G1 X38.679 Y50.533 E1.12503
G1 F1165 X39.126 Y50.408 E1.14888
G1 F1162.2 X38.806 Y50.336 E1.16578
G1 F1197 X38.343 Y50.089 E1.19203
G1 F1200 X38.224 Y49.985 E1.19991
G1 X37.947 Y49.602 E1.22349
G1 X37.844 Y49.367 E1.23629
G1 X37.78 Y48.95 E1.25734
G1 X37.807 Y48.602 E1.27476
G1 X37.993 Y48.129 E1.30011
G1 X38.123 Y47.95 E1.31115
G1 F1203 X38.546 Y47.598 E1.33854
G1 X39.143 Y47.417 E1.36958
G1 F1200 X39.402 Y47.417 E1.3825
G1 X39.961 Y47.56 E1.41129
G1 X40.422 Y47.95 E1.44142
G1 X40.552 Y48.129 E1.45245
G1 X40.742 Y48.617 E1.47858
G1 X40.765 Y48.947 E1.49508
G1 X40.701 Y49.367 E1.51628
G1 X40.599 Y49.6 E1.52897
G1 X40.385 Y49.912 E1.54784
G1 X40.202 Y50.089 E1.56054
G1 F1197 X39.738 Y50.336 E1.58684
G1 F1162.2 X39.418 Y50.408 E1.60373
G1 F1165 X39.866 Y50.534 E1.62765
G1 F1200 X40.046 Y50.625 E1.63771
G1 X40.42 Y50.949 E1.66239
G1 X40.595 Y51.21 E1.67807
G1 X40.736 Y51.589 E1.69825
G1 X40.769 Y51.896 E1.71365
G1 X40.702 Y52.364 E1.73724
G1 X40.626 Y52.553 E1.7474
G1 X40.316 Y52.99 E1.77413
G1 X40.125 Y53.14 E1.78625
G1 X39.58 Y53.379 E1.81594
G0 F3600 X40.547 Y52.394
G0 X40.394 Y51.135
G0 X39.078 Y50.296
G0 X39.078 Y49.991
G1 F1203 X38.582 Y49.768 E1.843
G1 F1200 X38.472 Y49.662 E1.85062
G1 X38.228 Y49.255 E1.8743
G1 X38.178 Y48.91 E1.89169
G1 X38.194 Y48.701 E1.90215
G1 X38.34 Y48.328 E1.92213
G1 X38.639 Y48.02 E1.94355
G1 X38.804 Y47.915 E1.9533
G1 X39.194 Y47.814 E1.9734
G1 X39.35 Y47.814 E1.98119
G1 X39.741 Y47.913 E2.00131
G1 X39.906 Y48.02 E2.01112
G1 X40.205 Y48.328 E2.03254
G1 X40.353 Y48.71 E2.05297
G1 X40.367 Y48.908 E2.06288
G1 X40.317 Y49.255 E2.08037
G1 X40.073 Y49.662 E2.10404
G1 X39.963 Y49.768 E2.11166
G1 X39.599 Y49.959 E2.13217
G1 F1203 X39.078 Y49.991 E2.15815
G0 F3600 X39.078 Y50.296
G0 X39.906 Y50.704
G0 X40.626 Y51.747
G0 X40.213 Y52.877
G0 X39.505 Y53.296
G0 X39.505 Y52.986
G1 F1200 X39.04 Y52.986 E2.18135
G1 X38.627 Y52.798 E2.20399
G1 X38.513 Y52.708 E2.21123
G1 X38.228 Y52.254 E2.23798
G1 X38.176 Y51.878 E2.25691
G1 X38.196 Y51.694 E2.26615
G1 X38.34 Y51.327 E2.28582
G1 X38.715 Y50.962 E2.31192
G1 X39.201 Y50.813 E2.33728
G1 X39.359 Y50.815 E2.34517
G1 X39.83 Y50.962 E2.36978
G1 X40.205 Y51.327 E2.39589
G1 X40.349 Y51.693 E2.41551
G1 X40.369 Y51.878 E2.4248
G1 X40.272 Y52.367 E2.44967
G1 X40.032 Y52.708 E2.47047
G1 X39.505 Y52.986 E2.5002
G0 F3600 X39.505 Y53.296
G0 X39.272 Y54.508
G0 X39.272 Y54.809
G1 F1200 X39.778 Y54.78 E2.52548
G1 X40.264 Y54.696 E2.55009
G1 X40.753 Y54.552 E2.57552
G1 X41.216 Y54.356 E2.60061
G1 X41.655 Y54.109 E2.62574
G1 X42.053 Y53.819 E2.65031
G1 X42.426 Y53.477 E2.67555
G1 X42.758 Y53.094 E2.70084
G1 X43.037 Y52.683 E2.72562
G1 X43.275 Y52.231 E2.75111
G1 X43.454 Y51.774 E2.7756
G1 X43.583 Y51.279 E2.80112
G1 X43.654 Y50.782 E2.82616
G1 X43.669 Y50.281 E2.85117
G1 X43.625 Y49.78 E2.87626
G1 X43.527 Y49.297 E2.90085
G1 X43.369 Y48.81 E2.92639
G1 X43.16 Y48.355 E2.95137
G1 X42.905 Y47.933 E2.97597
G1 X42.612 Y47.553 E2.99991
G1 X42.247 Y47.173 E3.0262
G1 X41.852 Y46.849 E3.05169
G1 X41.431 Y46.579 E3.07664
G1 X40.983 Y46.358 E3.10156
G1 X40.517 Y46.191 E3.12626
G1 X40.025 Y46.078 E3.15144
G1 X39.518 Y46.019 E3.17691
G1 X39.027 Y46.018 E3.2014
G1 X38.52 Y46.078 E3.22687
G1 F1203 X38.028 Y46.191 E3.252
G1 X37.561 Y46.358 E3.27668
G1 F1200 X37.114 Y46.578 E3.30153
G1 X36.692 Y46.849 E3.32655
G1 X36.295 Y47.175 E3.35218
G1 X35.952 Y47.526 E3.37667
G1 X35.646 Y47.923 E3.40167
G1 X35.38 Y48.362 E3.42728
G1 X35.172 Y48.819 E3.45233
G1 X35.017 Y49.297 E3.4774
G1 X34.92 Y49.78 E3.50198
G1 X34.875 Y50.29 E3.52752
G1 X34.89 Y50.782 E3.55208
G1 X34.962 Y51.279 E3.57714
G1 X35.091 Y51.775 E3.6027
G1 X35.269 Y52.232 E3.62717
G1 X35.508 Y52.686 E3.65277
G1 X35.786 Y53.093 E3.67736
G1 X36.12 Y53.477 E3.70275
G1 X36.492 Y53.82 E3.72799
G1 X36.889 Y54.109 E3.75249
G1 X37.328 Y54.356 E3.77762
G1 X37.791 Y54.553 E3.80273
G1 X38.281 Y54.696 E3.82819
G1 X38.766 Y54.78 E3.85275
G1 X39.272 Y54.809 E3.87804
G0 F3600 X39.272 Y54.408
G1 F1200 X39.733 Y54.382 E3.90107
G1 X40.173 Y54.306 E3.92335
G1 X40.618 Y54.175 E3.94649
G1 X41.438 Y53.772 E3.99208
G1 X42.138 Y53.197 E4.03727
G1 X42.44 Y52.849 E4.06026
G1 X42.694 Y52.477 E4.08273
G1 X43.072 Y51.65 E4.1281
G1 X43.19 Y51.2 E4.15131
G1 X43.255 Y50.748 E4.17409
G1 X43.268 Y50.293 E4.1968
G1 X43.139 Y49.398 E4.24191
G1 X42.996 Y48.956 E4.26509
G1 X42.806 Y48.542 E4.28781
G1 X42.309 Y47.814 E4.33179
G1 X41.975 Y47.467 E4.35582
G1 X41.616 Y47.173 E4.37897
G1 X40.827 Y46.727 E4.42419
G1 X40.404 Y46.576 E4.44659
G1 X39.495 Y46.419 E4.49261
G1 X39.05 Y46.418 E4.51482
G1 F1203 X38.141 Y46.575 E4.56072
G1 X37.311 Y46.927 E4.60559
G1 F1200 X36.927 Y47.173 E4.62834
G1 X36.254 Y47.788 E4.67382
G1 X35.976 Y48.149 E4.69656
G1 X35.735 Y48.549 E4.71985
G1 X35.545 Y48.964 E4.74263
G1 X35.316 Y49.837 E4.78765
G1 X35.276 Y50.301 E4.81089
G1 X35.355 Y51.2 E4.85591
G1 X35.473 Y51.651 E4.87917
G1 X35.851 Y52.479 E4.92458
G1 X36.104 Y52.848 E4.9469
G1 X36.746 Y53.51 E4.99291
G1 X37.106 Y53.772 E5.01512
G1 X37.925 Y54.176 E5.06068
G1 X38.811 Y54.382 E5.10607
G1 X39.272 Y54.408 E5.1291
G0 F3600 X40.98 Y52.739
G1 F1200 X40.6 Y53.272 E5.16176
G1 X40.333 Y53.482 E5.17871
G1 F895.5 X40.052 Y53.783 E5.20623
G1 X40.483 Y53.798 E5.23507
G1 F1200 X41.221 Y53.435 E5.2761
G1 X41.851 Y52.918 E5.31676
G1 X42.35 Y52.271 E5.35752
G1 X42.691 Y51.526 E5.3984
G1 X42.855 Y50.714 E5.43973
G1 X42.867 Y50.305 E5.46014
G1 X42.752 Y49.5 E5.50071
G1 X42.623 Y49.101 E5.52163
G1 X42.244 Y48.386 E5.562
G1 X41.703 Y47.761 E5.60324
G1 X41.037 Y47.277 E5.64432
G1 X40.64 Y47.085 E5.66632
G1 F871.1 X40.274 Y47.115 E5.69156
G1 X40.44 Y47.423 E5.7156
G1 F1200 X40.717 Y47.68 E5.73445
G1 X40.899 Y47.929 E5.74984
G1 X41.131 Y48.523 E5.78166
G1 X41.163 Y48.985 E5.80476
G1 X41.085 Y49.478 E5.82966
G1 X40.943 Y49.806 E5.84749
G1 X40.697 Y50.163 E5.86912
G1 X40.43 Y50.417 E5.88751
G1 X40.714 Y50.677 E5.90672
G1 X40.959 Y51.043 E5.92869
G1 X41.122 Y51.485 E5.9522
G1 X41.168 Y51.914 E5.97372
G1 X41.086 Y52.474 E6.00196
G1 X40.98 Y52.739 E6.0162
G0 F3600 X40.052 Y53.783
G1 F745.3 X39.676 Y53.877 E6.04733
G1 F785.6 X39.07 Y53.897 E6.09353
G1 F751.2 X38.493 Y53.783 E6.14041
G0 F3600 X39.429 Y53.296
G0 X39.429 Y52.593
;TYPE:WALL-OUTER
G1 F1200 X39.116 Y52.593 E6.15603
G1 X38.797 Y52.426 E6.17399
G1 X38.612 Y52.143 E6.19086
G1 X38.582 Y51.798 E6.20813
G1 X38.69 Y51.521 E6.22297
G1 X38.931 Y51.299 E6.23931
G1 X39.301 Y51.211 E6.25829
G1 X39.614 Y51.299 E6.27451
G1 X39.842 Y51.503 E6.28977
G1 X39.963 Y51.797 E6.30563
G1 X39.918 Y52.181 E6.32492
G1 X39.748 Y52.426 E6.3398
G1 X39.429 Y52.593 E6.35777
G0 F3600 X39.229 Y52.593
G0 X39.229 Y53.296
G0 X40.176 Y52.931
G0 X40.626 Y51.747
G0 X40.118 Y50.891
G0 X39.418 Y50.408
;TYPE:WALL-INNER
G1 F1132.1 X39.126 Y50.408 E6.37321
G0 F3600 X39.461 Y49.584
;TYPE:WALL-OUTER
G1 F1200 X39.084 Y49.584 E6.39202
G1 X38.82 Y49.446 E6.40688
G1 X38.612 Y49.143 E6.42521
G1 X38.576 Y48.835 E6.44068
G1 X38.687 Y48.527 E6.45702
G1 X38.96 Y48.283 E6.47529
G1 X39.298 Y48.211 E6.49253
G1 X39.585 Y48.283 E6.50729
G1 X39.858 Y48.527 E6.52556
G1 X39.964 Y48.803 E6.54031
G1 X39.924 Y49.168 E6.55863
G1 X39.725 Y49.446 E6.57568
G1 X39.461 Y49.584 E6.59054
G0 F3600 X39.261 Y49.584
G0 X39.261 Y50.296
G0 X40.176 Y49.931
G0 X40.611 Y48.87
G0 X40.274 Y47.115
;TYPE:WALL-INNER
G1 F713.2 X39.872 Y46.989 E6.62591
G1 F770.5 X39.466 Y46.92 E6.65791
G1 F796 X39.079 Y46.92 E6.68701
G1 F753.5 X38.44 Y47.054 E6.73889
G0 F3600 X37.919 Y48.747
G0 X37.919 Y51.747
G0 X39.272 Y54.508
G0 X39.272 Y55.209
;TYPE:WALL-OUTER
G1 F1200 X39.824 Y55.178 E6.76647
G1 X40.355 Y55.086 E6.79335
G1 X40.888 Y54.93 E6.82106
G1 X41.393 Y54.716 E6.84843
G1 X41.871 Y54.446 E6.87581
G1 X42.307 Y54.129 E6.90271
G1 X42.713 Y53.756 E6.93021
G1 X43.076 Y53.338 E6.95783
G1 X43.381 Y52.889 E6.98491
G1 X43.639 Y52.398 E7.01259
G1 X43.835 Y51.898 E7.03938
G1 X43.976 Y51.359 E7.06717
G1 X44.054 Y50.816 E7.09454
G1 X44.069 Y50.269 E7.12184
G1 X44.021 Y49.723 E7.14919
G1 X43.915 Y49.195 E7.17606
G1 X43.743 Y48.664 E7.2039
G1 X43.514 Y48.167 E7.2312
G1 X43.236 Y47.707 E7.25802
G1 X42.916 Y47.291 E7.2842
G1 X42.519 Y46.879 E7.31275
G1 X42.088 Y46.525 E7.34057
G1 X41.628 Y46.23 E7.36784
G1 X41.139 Y45.989 E7.39504
G1 X40.629 Y45.807 E7.42205
G1 X40.093 Y45.683 E7.4495
G1 X39.541 Y45.619 E7.47722
G1 X39.004 Y45.618 E7.50401
G1 X38.452 Y45.683 E7.53174
G1 F1203 X37.916 Y45.806 E7.55911
G1 X37.405 Y45.989 E7.58612
G1 F1200 X36.917 Y46.229 E7.61325
G1 X36.456 Y46.525 E7.64059
G1 X36.024 Y46.879 E7.66845
G1 X35.649 Y47.263 E7.69523
G1 X35.315 Y47.697 E7.72255
G1 X35.026 Y48.175 E7.75042
G1 X34.798 Y48.674 E7.77779
G1 X34.629 Y49.195 E7.80511
G1 X34.523 Y49.723 E7.83198
G1 X34.475 Y50.279 E7.85982
G1 X34.491 Y50.816 E7.88663
G1 X34.569 Y51.359 E7.914
G1 X34.71 Y51.899 E7.94184
G1 X34.905 Y52.398 E7.96857
G1 X35.164 Y52.892 E7.9964
G1 X35.469 Y53.338 E8.02335
G1 X35.832 Y53.756 E8.05097
G1 X36.238 Y54.13 E8.07851
G1 X36.673 Y54.446 E8.10534
G1 X37.151 Y54.716 E8.13273
G1 X37.656 Y54.93 E8.16009
G1 X38.19 Y55.086 E8.18784
G1 X38.72 Y55.178 E8.21468
G1 X39.272 Y55.209 E8.24226
G0 F3600 X39.472 Y55.198
G0 X39.434 Y54.498
G0 X41.551 Y51.926
;TYPE:SKIN
G1 F1200 X41.49 Y51.389 E8.26923
G1 X41.293 Y50.859 E8.29744
G1 X40.969 Y50.402 E8.32538
G1 X41.283 Y49.976 E8.35179
G1 X41.452 Y49.582 E8.37318
G1 X41.539 Y49.034 E8.40086
G1 X41.502 Y48.438 E8.43065
G1 X41.309 Y47.942 E8.4572
G1 X41.443 Y48.039 E8.46546
G1 X41.926 Y48.599 E8.50235
G1 X42.268 Y49.244 E8.53877
G1 X42.38 Y49.59 E8.55692
G1 X42.486 Y50.329 E8.59416
G1 X42.476 Y50.676 E8.61148
G1 X42.328 Y51.405 E8.64859
G1 X42.017 Y52.085 E8.6859
G1 X41.824 Y52.369 E8.70303
G1 X41.338 Y52.868 E8.73778
G1 X41.446 Y52.597 E8.75234
G1 X41.551 Y51.926 E8.78622
G0 F3600 X41.826 Y52.008
G1 F1200 X41.741 Y51.924 E8.79218
G0 F3600 X42.007 Y51.624
G1 F1200 X41.662 Y51.278 E8.81656
G0 F3600 X42.162 Y51.213
G1 F1200 X41.274 Y50.325 E8.87921
G0 F3600 X41.493 Y49.978
G1 F1200 X42.258 Y50.743 E8.93319
G0 F3600 X42.263 Y50.182
G1 F1200 X41.654 Y49.573 E8.97616
G0 F3600 X42.138 Y49.492
G1 F1200 X41.732 Y49.086 E9.0048
G0 F3600 X40.003 Y50.016
G0 X37.06 Y51.373
G1 F1200 X36.998 Y51.952 E9.03385
G1 X37.093 Y52.581 E9.06559
G1 X37.196 Y52.838 E9.0794
G1 X36.971 Y52.653 E9.09394
G1 X36.521 Y52.071 E9.13064
G1 X36.216 Y51.407 E9.16709
G1 X36.122 Y51.043 E9.18585
G1 X36.058 Y50.318 E9.22216
G1 X36.089 Y49.961 E9.24004
G1 X36.276 Y49.241 E9.27715
G1 X36.427 Y48.912 E9.29521
G1 X36.846 Y48.301 E9.33217
G1 X37.231 Y47.947 E9.35827
G1 X37.051 Y48.408 E9.38296
G1 X37.005 Y49.03 E9.41407
G1 X37.088 Y49.564 E9.44103
G1 X37.263 Y49.979 E9.4635
G1 X37.575 Y50.403 E9.48977
G1 X37.252 Y50.863 E9.51781
G1 X37.06 Y51.373 E9.545
G0 F3600 X36.818 Y52.091
G1 F1200 X36.693 Y51.966 E9.55382
G0 F3600 X36.836 Y51.543
G1 F1200 X36.326 Y51.034 E9.58976
G0 F3600 X36.95 Y51.092
G1 F1200 X36.266 Y50.408 E9.63802
G0 F3600 X36.313 Y49.889
G1 F1200 X37.12 Y50.696 E9.69496
G0 F3600 X37.157 Y50.168
G1 F1200 X36.43 Y49.44 E9.74629
G0 F3600 X36.589 Y49.035
G1 F1200 X36.843 Y49.288 E9.76418
G1 F1500 E8.76418
;MESH:LedR.stl
G0 F3600 X36.381 Y53.962
G0 X35.744 Y54.839
G0 X33.762 Y60.062
G0 X33.284 Y61.035
G0 X33.59 Y63.203
;TYPE:WALL-INNER
G1 F1500 E9.76418
G1 F1200 X33.946 Y63.354 E9.78347
G1 X34.324 Y63.652 E9.80748
G1 X34.101 Y63.191 E9.83303
G1 X33.849 Y62.816 E9.85557
G1 X33.539 Y62.46 E9.87912
G1 X33.176 Y62.143 E9.90317
G1 X32.792 Y61.887 E9.92619
G1 X32.374 Y61.681 E9.94944
G1 X31.916 Y61.525 E9.97358
G1 X31.465 Y61.436 E9.99652
G1 X30.993 Y61.403 E10.02012
G1 X30.52 Y61.435 E10.04377
G1 X30.069 Y61.525 E10.06672
G1 X29.611 Y61.681 E10.09086
G1 X29.192 Y61.886 E10.11413
G1 X28.808 Y62.143 E10.13718
G1 X28.446 Y62.461 E10.16122
G1 X28.135 Y62.816 E10.18477
G1 X27.88 Y63.197 E10.20764
G1 X27.657 Y63.665 E10.2335
G1 X28.041 Y63.355 E10.25812
G1 X28.413 Y63.191 E10.27841
G1 X28.786 Y63.101 E10.29755
G1 X30.128 Y63.1 E10.3645
G1 X30.684 Y63.232 E10.39301
G1 X30.994 Y63.389 E10.41035
G1 X31.564 Y63.143 E10.44132
G1 X31.78 Y63.106 E10.45225
G1 X33.129 Y63.098 E10.51956
G1 X33.59 Y63.203 E10.54315
G0 F3600 X34.267 Y64.516
G0 X34.383 Y65.657
G1 F1076.2 X34.341 Y65.646 E10.54556
G1 F1200 X34.071 Y66.03 E10.56898
G1 X33.741 Y66.3 E10.59025
G1 X33.185 Y66.494 E10.61963
G1 X31.819 Y66.496 E10.68778
G1 X31.519 Y66.421 E10.70321
G1 X31.068 Y66.181 E10.7287
G1 X30.987 Y66.105 E10.73424
G1 X30.755 Y66.292 E10.74911
G1 X30.258 Y66.495 E10.77589
G1 X28.801 Y66.495 E10.84858
G1 X28.557 Y66.436 E10.8611
G1 X28.216 Y66.272 E10.87998
G1 X27.962 Y66.09 E10.89557
G1 F1093.4 X27.555 Y65.553 E10.93246
G1 F1034.5 X27.471 Y64.994 E10.96518
G1 F1043.5 X27.522 Y64.587 E10.98871
G1 F995.9 X27.602 Y64.344 E11.00409
G1 F1076.2 X27.914 Y63.971 E11.03114
G1 F1200 X28.246 Y63.698 E11.05259
G1 X28.8 Y63.506 E11.08184
G1 X30.088 Y63.5 E11.1461
G1 X30.578 Y63.619 E11.17126
G1 X30.998 Y63.896 E11.19636
G1 X31.318 Y63.659 E11.21622
G1 X31.817 Y63.504 E11.24229
G1 X33.092 Y63.499 E11.3059
G1 X33.485 Y63.589 E11.32602
G1 X33.739 Y63.697 E11.33979
G1 X34.023 Y63.911 E11.35753
G1 F1106 X34.463 Y64.566 E11.40024
G1 F1045.8 X34.514 Y65.006 E11.4256
G1 F1061.9 X34.49 Y65.304 E11.44245
G1 F1014.8 X34.383 Y65.657 E11.46421
G0 F3600 X33.665 Y66.174
G0 X28.717 Y66.338
G0 X27.986 Y65.979
G0 X28.242 Y65.804
G1 F1200 X28.03 Y65.517 E11.48201
G1 X27.941 Y65.318 E11.49289
G1 X27.896 Y64.901 E11.51382
G1 F1203 X28.062 Y64.415 E11.53937
G1 X28.451 Y64.042 E11.56619
G1 F1200 X28.843 Y63.904 E11.58693
G1 X30.072 Y63.904 E11.64824
G1 X30.436 Y63.993 E11.66694
G1 X30.785 Y64.241 E11.6883
G1 X30.994 Y64.572 E11.70783
G1 X31.14 Y64.309 E11.72283
G1 X31.495 Y64.018 E11.74574
G1 X31.854 Y63.903 E11.76454
G1 X32.993 Y63.899 E11.82137
G1 X33.533 Y64.04 E11.84921
G1 X33.744 Y64.198 E11.86236
G1 X33.954 Y64.481 E11.87994
G1 X34.042 Y64.674 E11.89053
G1 X34.089 Y65.019 E11.9079
G1 X34.074 Y65.203 E11.91711
G1 X33.924 Y65.585 E11.93758
G1 X33.535 Y65.958 E11.96447
G1 X33.142 Y66.096 E11.98525
G1 X31.856 Y66.098 E12.04941
G1 X31.676 Y66.053 E12.05867
G1 X31.305 Y65.859 E12.07955
